X: 42137
T: Wassail
R: jig
M: 6/8
K: Gmajor
||DGA|"G" B2B BAF|"Em" G2G GFD|"C"E2E EFG|"D7" ABA FGA|
"G" B2B BAF|"Em"G2G GFD|"C" EFG "D7" FGA|"G" G3 GAB|
"G" d2d dBA|"D7" d2d dBA|"C"efe dBA|"Em" GAG "D7" FED|
"G" B2B BAF|"Em"G2G GFD|"C" EFG "D7" FGA|"G" G3||
GBd|"C" e2e efg|"C" g3 gfe|"G" ded BAG|"G" ded BAG|
"C"e2e efg|"C" g3 gfe|"G"ded BAG|"D" A3 ABd|
"C" e2e efg|"C" g3 gfe|"G" ded BAG|"G" ded BAG|
"G"B2B BAG|"Em"G2G GFE|"C"EFG "D"FGA|"G" G3||

